X:1
T:Weaver has a Daughter, The
M:C|
L:1/8
R:Stathspey
B:Laybourn  - Köhlers' Violin Repository Book 2 (1881-1885, p. 182).
Z:AK/Fiddler’s Companion
K:Gmin
d|B<G(G>A) (B>F)F>d|B<G(G>F) {d}e3g|.f>.e~(d>c) B>GF<e|.d>.c(B>A) {^F}G2G:|
|:^f|g<d(d=e) (=f>c)c>^f|g<d(d>g) (d<b)a>g|f>d~(d>c) B>GF<e|.d>.c(B>A) {^F}G2G:|]

